X: 20367
T: John Clifford's
R: polka
M: 2/4
K: Dmajor
|:d>B|AF A>d|BG B>d|Ad fd|ed B/c/d/B/|
AF/A/ Ad/A/|BG Bd/B/|Ad f>d|ed:|
|:d>B|Ad f>g|fe e>d|ef ga|ba f/g/a/f/|
Ad ff/g/|fe ee/d/|ef af|ed:|

